image/achiments3.svg

<svg width="34" height="39" viewBox="0 0 34 39" fill="none" xmlns="http://www.w3.org/2000/svg">
<path d="M16.998 12C15.7491 11.9986 14.5227 12.3558 13.4462 13.0344C12.3698 13.713 11.4826 14.6884 10.877 15.859C10.2714 17.0295 9.96937 18.3526 10.0025 19.6907C10.0355 21.0287 10.4025 22.3328 11.0651 23.4674C11.0849 23.5115 11.1092 23.5532 11.1375 23.5916C11.7991 24.6809 12.7135 25.5672 13.7909 26.1636C14.8684 26.7601 16.072 27.0462 17.2837 26.9939C18.4954 26.9416 19.6737 26.5528 20.7029 25.8654C21.7321 25.1781 22.5771 24.2159 23.1548 23.0731C23.7326 21.9304 24.0233 20.6463 23.9985 19.3469C23.9738 18.0474 23.6344 16.7771 23.0136 15.6606C22.3928 14.5441 21.5119 13.6197 20.4573 12.9779C19.4028 12.3362 18.2107 11.9992 16.998 12ZM11.9271 21.6972C11.4118 20.3648 11.3741 18.8753 11.8215 17.515C12.2688 16.1547 13.1695 15.0196 14.3505 14.328C15.5314 13.6364 16.9092 13.4371 18.219 13.7684C19.5287 14.0997 20.678 14.9382 21.4458 16.1227L17.2225 20.6413L15.6071 18.9177C15.4622 18.765 15.2671 18.6795 15.0638 18.6795C14.8606 18.6795 14.6655 18.765 14.5205 18.9177L11.9271 21.6972ZM16.998 25.3307C16.1839 25.3309 15.3801 25.1357 14.6455 24.7595C13.911 24.3833 13.2643 23.8357 12.7529 23.1568L15.0783 20.6646L16.6937 22.396C16.8387 22.5486 17.0338 22.6342 17.237 22.6342C17.4403 22.6342 17.6354 22.5486 17.7803 22.396L22.1847 17.6677C22.452 18.5465 22.5216 19.4806 22.3879 20.3938C22.2541 21.3069 21.9207 22.1732 21.415 22.922C20.9092 23.6707 20.2454 24.2806 19.4778 24.7019C18.7101 25.1233 17.8604 25.344 16.998 25.3463V25.3307Z" fill="#E93B3C"/>
<path d="M29.3384 18.9873C29.2044 15.134 28.0377 11.377 25.9487 8.07209C23.8597 4.76722 20.9176 2.0239 17.4011 0.101976C17.2793 0.0351705 17.1412 0 17.0007 0C16.8601 0 16.722 0.0351705 16.6002 0.101976C13.0813 2.02128 10.1373 4.76398 8.04795 8.06941C5.9586 11.3748 4.79336 15.1332 4.66295 18.9873C3.28022 19.5525 2.10192 20.4902 1.27351 21.6846C0.445105 22.879 0.00285463 24.2778 0.00136131 25.7084V31.0939C-0.00482783 31.1918 0.0101321 31.2898 0.0453198 31.382C0.0805075 31.4741 0.135177 31.5585 0.205961 31.6298C0.276744 31.7011 0.362141 31.7579 0.456891 31.7966C0.551641 31.8354 0.653736 31.8553 0.756886 31.8551H12.5808C12.7602 34.1649 13.8121 36.3352 15.5425 37.9659L16.434 38.7773C16.5085 38.848 16.5968 38.904 16.694 38.9422C16.7913 38.9804 16.8955 39 17.0007 38.9999C17.105 39.0015 17.2085 38.9825 17.3047 38.9442C17.4009 38.9059 17.4878 38.8491 17.5598 38.7773L18.4588 37.9443C20.1899 36.3148 21.2396 34.1434 21.4129 31.8336H23.8986V35.7686C23.8986 35.9705 23.983 36.1641 24.1332 36.3068C24.2834 36.4495 24.4871 36.5297 24.6995 36.5297C24.9119 36.5297 25.1156 36.4495 25.2657 36.3068C25.4159 36.1641 25.5003 35.9705 25.5003 35.7686V31.8551H33.1991C33.3046 31.8561 33.4092 31.837 33.5068 31.7991C33.6044 31.7612 33.6931 31.7052 33.7677 31.6343C33.8422 31.5634 33.9012 31.4791 33.9411 31.3864C33.981 31.2936 34.001 31.1942 34 31.0939V25.7084C33.9985 24.2778 33.5562 22.879 32.7278 21.6846C31.8994 20.4902 30.7211 19.5525 29.3384 18.9873ZM16.9931 1.64583C19.4842 3.07349 21.6538 4.95498 23.3773 7.18216H10.6165C12.3391 4.95683 14.5058 3.07562 16.9931 1.64583ZM1.59552 30.3687V25.7084C1.59058 24.6922 1.86728 23.6926 2.39779 22.8102C2.9283 21.9279 3.69391 21.1938 4.61762 20.6819V29.5716C4.61988 29.8312 4.66842 30.0886 4.76117 30.3328L1.59552 30.3687ZM17.3255 36.9175L16.9931 37.2263L16.6607 36.9175C15.2332 35.5746 14.3548 33.7929 14.1826 31.891H19.7961C19.6261 33.7905 18.7534 35.5714 17.3331 36.9175H17.3255ZM27.7442 29.5716C27.7403 29.7723 27.6547 29.9638 27.5054 30.1058C27.356 30.2477 27.1546 30.3291 26.9434 30.3328H7.05796C6.95251 30.3337 6.84792 30.3147 6.7503 30.2768C6.65268 30.2389 6.56399 30.1829 6.48942 30.112C6.41485 30.0411 6.3559 29.9568 6.31601 29.864C6.27612 29.7713 6.2561 29.6719 6.2571 29.5716V19.7053C6.2717 16.9853 6.83864 14.2936 7.92681 11.7778H11.5609C11.7608 11.7594 11.9464 11.6708 12.0814 11.5295C12.2164 11.3881 12.2912 11.204 12.2912 11.0131C12.2912 10.8221 12.2164 10.638 12.0814 10.4967C11.9464 10.3553 11.7608 10.2668 11.5609 10.2483H8.6219C8.90144 9.71695 9.2112 9.19994 9.53608 8.69011H24.4652C26.6106 12.0023 27.7458 15.8158 27.7442 19.7053V29.5716ZM32.3983 30.3328H29.2099C29.3003 30.0882 29.3462 29.8308 29.3459 29.5716V20.6963C30.2696 21.2082 31.0353 21.9422 31.5658 22.8246C32.0963 23.7069 32.373 24.7065 32.368 25.7228L32.3983 30.3328Z" fill="#E93B3C"/>
<path d="M14.8302 10.2962C14.7485 10.1229 14.6369 10.0178 14.5179 10.0021C14.3988 9.98634 14.2813 10.0612 14.1888 10.2115L14.1464 10.2962C14.0986 10.3869 14.0609 10.4965 14.0358 10.6181C14.0106 10.7396 13.9985 10.8703 14.0002 11.0018C14.0001 11.1992 14.0293 11.3922 14.0843 11.5563C14.1392 11.7205 14.2173 11.8485 14.3087 11.924C14.4001 11.9996 14.5007 12.0193 14.5977 11.9808C14.6948 11.9422 14.7839 11.8471 14.8538 11.7075C14.9002 11.6148 14.937 11.5047 14.9621 11.3836C14.9872 11.2626 15.0001 11.1328 15 11.0018C14.9987 10.8668 14.9829 10.7338 14.9536 10.6121C14.9243 10.4903 14.8822 10.3826 14.8302 10.2962Z" fill="#E93B3C"/>
<path d="M9.5 34C9.43417 33.9993 9.36887 34.014 9.30792 34.0434C9.24698 34.0728 9.19161 34.1162 9.14506 34.1712C9.09851 34.2261 9.0617 34.2914 9.0368 34.3634C9.01189 34.4353 8.99939 34.5123 9.00002 34.59V36.41C9.00002 36.5665 9.0527 36.7166 9.14646 36.8272C9.24023 36.9378 9.3674 37 9.5 37C9.6326 37 9.75977 36.9378 9.85354 36.8272C9.9473 36.7166 9.99998 36.5665 9.99998 36.41V34.59C10.0006 34.5123 9.98811 34.4353 9.9632 34.3634C9.9383 34.2914 9.90149 34.2261 9.85494 34.1712C9.80839 34.1162 9.75302 34.0728 9.69208 34.0434C9.63113 34.014 9.56583 33.9993 9.5 34Z" fill="#E93B3C"/>
<path d="M24.8548 37.2927C24.8082 37.1999 24.7529 37.1263 24.692 37.0761C24.6311 37.026 24.5659 37.0002 24.5 37.0003C24.4339 36.9969 24.3682 37.0212 24.307 37.0715C24.2459 37.1219 24.1908 37.1972 24.1452 37.2927C24.0521 37.4814 24 37.7354 24 38C24 38.2646 24.0521 38.5186 24.1452 38.7073C24.1908 38.8028 24.2459 38.8781 24.307 38.9285C24.3682 38.9788 24.4339 39.0031 24.5 38.9997C24.5669 38.9967 24.6329 38.9667 24.6938 38.9116C24.7548 38.8565 24.8096 38.7774 24.8548 38.679C24.9479 38.4903 25 38.2363 25 37.9717C25 37.7071 24.9479 37.4531 24.8548 37.2644V37.2927Z" fill="#E93B3C"/>
</svg>

<?xml version="1.0" encoding="UTF-8" standalone="no"?>
<svg width="34" xmlns="http://www.w3.org/2000/svg" viewBox="0 0 34 39" height="39">
 <path d="m16.998 12c-1.249-0.001-2.475 0.356-3.552 1.034-1.076 0.679-1.963 1.654-2.569 2.825s-0.9076 2.494-0.875 3.832c0.034 1.338 0.4 2.642 1.063 3.776 0.02 0.045 0.044 0.086 0.073 0.125 0.661 1.089 1.576 1.975 2.653 2.572 1.077 0.596 2.281 0.882 3.493 0.83 1.211-0.052 2.39-0.441 3.419-1.129 1.029-0.687 1.874-1.649 2.452-2.792s0.868-2.427 0.843-3.726c-0.024-1.3-0.364-2.57-0.984-3.686-0.621-1.117-1.502-2.041-2.557-2.683-1.054-0.642-2.246-0.979-3.459-0.978zm-5.071 9.697c-0.515-1.332-0.553-2.822-0.105-4.182 0.447-1.36 1.348-2.495 2.528-3.187 1.181-0.692 2.559-0.891 3.869-0.56 1.31 0.332 2.459 1.17 3.227 2.355l-4.224 4.518-1.615-1.723c-0.145-0.153-0.34-0.238-0.543-0.238s-0.398 0.085-0.544 0.238l-2.593 2.779zm5.071 3.634c-0.814 0-1.618-0.195-2.352-0.571-0.735-0.377-1.382-0.924-1.893-1.603l2.325-2.492 1.616 1.731c0.145 0.153 0.34 0.238 0.543 0.238s0.398-0.085 0.543-0.238l4.405-4.728c0.267 0.878 0.337 1.813 0.203 2.726s-0.467 1.779-0.973 2.528-1.17 1.359-1.937 1.78c-0.768 0.421-1.618 0.642-2.48 0.644v-0.015z" fill="#E93B3C"/>
 <path d="m29.338 18.987c-0.134-3.853-1.3-7.61-3.389-10.915-2.089-3.3048-5.031-6.0481-8.548-7.97-0.122-0.06683-0.26-0.102-0.4-0.102-0.141 0-0.279 0.03517-0.401 0.10198-3.519 1.9193-6.463 4.662-8.552 7.9674-2.0894 3.3056-3.2546 7.0636-3.385 10.918-1.3828 0.565-2.5611 1.503-3.3895 2.698-0.8284 1.194-1.2706 2.593-1.2721 4.023v5.386c-0.0062278 0.098 0.008732 0.196 0.04392 0.288s0.08986 0.176 0.16064 0.248c0.07078 0.071 0.15618 0.128 0.25093 0.167 0.09475 0.038 0.19685 0.058 0.3 0.058h11.824c0.179 2.31 1.231 4.48 2.961 6.111l0.892 0.811c0.074 0.071 0.163 0.127 0.26 0.165s0.202 0.058 0.307 0.058c0.104 0.002 0.207-0.018 0.304-0.056 0.096-0.038 0.183-0.095 0.255-0.167l0.899-0.833c1.731-1.629 2.781-3.801 2.954-6.11h2.486v3.935c0 0.201 0.084 0.395 0.234 0.538s0.354 0.223 0.567 0.223c0.212 0 0.416-0.08 0.566-0.223s0.234-0.337 0.234-0.538v-3.914h7.699c0.106 0.001 0.21-0.018 0.308-0.056 0.097-0.038 0.186-0.094 0.261-0.165 0.074-0.071 0.133-0.155 0.173-0.248 0.04-0.092 0.06-0.192 0.059-0.292v-5.386c-0.002-1.43-0.444-2.829-1.272-4.023-0.829-1.195-2.007-2.133-3.39-2.698zm-12.345-17.341c2.491 1.4277 4.661 3.3092 6.384 5.5364h-12.761c1.723-2.2254 3.89-4.1066 6.377-5.5364zm-15.398 28.723v-4.661c-0.0049-1.016 0.2718-2.015 0.8023-2.898 0.5305-0.882 1.2961-1.616 2.2198-2.128v8.89c0.0023 0.259 0.0508 0.517 0.1436 0.761l-3.1657 0.036zm15.73 6.549l-0.333 0.308-0.332-0.308c-1.428-1.343-2.306-3.125-2.478-5.027h5.613c-0.17 1.899-1.043 3.68-2.463 5.027h-0.007zm10.418-7.346c-0.004 0.2-0.089 0.392-0.239 0.534-0.149 0.142-0.35 0.223-0.562 0.227h-19.885c-0.1055 0.001-0.2101-0.018-0.3077-0.056s-0.1863-0.094-0.2609-0.165-0.1335-0.155-0.1734-0.248-0.0599-0.192-0.0589-0.292v-9.867c0.0146-2.72 0.5815-5.411 1.6697-7.927h3.6342c0.2-0.019 0.385-0.107 0.52-0.248 0.135-0.142 0.21-0.326 0.21-0.517s-0.075-0.375-0.21-0.516c-0.135-0.142-0.32-0.23-0.52-0.249h-2.9391c0.2795-0.531 0.5893-1.0481 0.9142-1.5579h14.929c2.146 3.3119 3.281 7.1259 3.279 11.015v9.867zm4.654 0.761h-3.188c0.09-0.245 0.136-0.502 0.136-0.761v-8.876c0.924 0.512 1.689 1.246 2.22 2.129 0.53 0.882 0.807 1.881 0.802 2.898l0.03 4.61z" fill="#E93B3C"/>
 <path d="m14.83 10.296c-0.082-0.173-0.193-0.278-0.312-0.294-0.119-0.0157-0.237 0.059-0.329 0.21l-0.043 0.084c-0.047 0.091-0.085 0.2-0.11 0.322s-0.038 0.252-0.036 0.384c0 0.197 0.029 0.39 0.084 0.554s0.133 0.292 0.225 0.368c0.091 0.076 0.192 0.095 0.289 0.057 0.097-0.039 0.186-0.134 0.256-0.273 0.046-0.093 0.083-0.203 0.108-0.324s0.038-0.251 0.038-0.382c-0.001-0.135-0.017-0.268-0.046-0.39-0.03-0.122-0.072-0.229-0.124-0.316z" fill="#E93B3C"/>
 <path d="m9.5 34c-0.0658-0.001-0.1311 0.014-0.1921 0.043-0.0609 0.03-0.1163 0.073-0.1628 0.128-0.0466 0.055-0.0834 0.12-0.1083 0.192s-0.0374 0.149-0.0368 0.227v1.82c0 0.156 0.0527 0.307 0.1465 0.417 0.0937 0.111 0.2209 0.173 0.3535 0.173s0.2598-0.062 0.3535-0.173c0.0938-0.11 0.1465-0.261 0.1465-0.417v-1.82c0.001-0.078-0.0119-0.155-0.0368-0.227s-0.0617-0.137-0.1083-0.192c-0.0465-0.055-0.1019-0.098-0.1628-0.128-0.061-0.029-0.1263-0.044-0.1921-0.043z" fill="#E93B3C"/>
 <path d="m24.855 37.293c-0.047-0.093-0.102-0.167-0.163-0.217s-0.126-0.076-0.192-0.076c-0.066-0.003-0.132 0.021-0.193 0.072-0.061 0.05-0.116 0.125-0.162 0.221-0.093 0.188-0.145 0.442-0.145 0.707s0.052 0.519 0.145 0.707c0.046 0.096 0.101 0.171 0.162 0.221 0.061 0.051 0.127 0.075 0.193 0.072 0.067-0.003 0.133-0.033 0.194-0.088 0.061-0.056 0.116-0.135 0.161-0.233 0.093-0.189 0.145-0.443 0.145-0.707 0-0.265-0.052-0.519-0.145-0.708v0.029z" fill="#E93B3C"/>
</svg>
